packages/dnb-eufemia/assets/icons/house_value.svg

<svg width="16" height="16" viewBox="0 0 16 16" fill="none" xmlns="http://www.w3.org/2000/svg">
<path d="M2.86667 10.5V12.5023C2.86667 13.0107 3.29164 13.4356 3.8 13.4356H12.2C12.7084 13.4356 13.1333 13.0107 13.1333 12.5023V10.5M1 8.6134L7.33982 2.27358C7.4265 2.18685 7.52941 2.11804 7.64269 2.0711C7.75597 2.02416 7.87738 2 8 2C8.12262 2 8.24403 2.02416 8.35731 2.0711C8.47059 2.11804 8.5735 2.18685 8.66018 2.27358L11.2667 4.88007M15 8.6134L13.1333 6.74673M11.2667 4.88007V2.48008H13.1333V6.74673M11.2667 4.88007L13.1333 6.74673" stroke="black" stroke-width="1.5" stroke-linecap="round" stroke-linejoin="round"/>
<path d="M7.77481 7.5H6.85501L5.77078 8.94393V7.5H5V11.097H5.77078V10.0025L5.93007 9.80206L6.80363 11.097H7.77481L6.3874 9.23169L7.77481 7.5Z" fill="black"/>
<path d="M10.1059 11.097H11L10.2344 9.63763C10.6917 9.49375 10.9486 9.13405 10.9486 8.60478C10.9486 7.90594 10.4964 7.5 9.72051 7.5H8.28685V11.097H9.05763V9.70957H9.44302L10.1059 11.097ZM9.05763 8.11662H9.59718C9.98771 8.11662 10.1676 8.27078 10.1676 8.60478C10.1676 8.93879 9.98771 9.09295 9.59718 9.09295H9.05763V8.11662Z" fill="black"/>
</svg>

<svg width="16" height="16" viewBox="0 0 16 16" fill="none" xmlns="http://www.w3.org/2000/svg"><path d="M2.867 10.5v2.002c0 .509.425.934.933.934h8.4a.942.942 0 0 0 .933-.934V10.5M1 8.613l6.34-6.34a.933.933 0 0 1 1.32 0l2.607 2.607M15 8.613l-1.867-1.866M11.267 4.88v-2.4h1.866v4.267M11.267 4.88l1.866 1.867" stroke="#000" stroke-width="1.5" stroke-linecap="round" stroke-linejoin="round"/><path d="M7.775 7.5h-.92L5.771 8.944V7.5H5v3.597h.77v-1.095l.16-.2.874 1.295h.97L6.388 9.232 7.775 7.5Zm2.331 3.597H11l-.766-1.46c.458-.143.715-.503.715-1.032 0-.7-.453-1.105-1.228-1.105H8.287v3.597h.77V9.71h.386l.663 1.387Zm-1.048-2.98h.54c.39 0 .57.154.57.488 0 .334-.18.488-.57.488h-.54v-.976Z" fill="#000"/></svg>
